X: 347
T:I's the B'y
N: page 121
N: heptatonic
R: song
C:Newfoundland
M:6/8
L:1/8
K:D
|A3| d3 e3|:"D" f2 d f2 f|"A"ecB A2 d|"D"f2 f fef|"G"g3 a2 g|"D"f2 d f2 f|
"A"ecB A2 A| "G"B2 c"A"e2 c|[1 "D" d3 d2 e:|[2"D"d3 dFE |:
"D"D2 F A2 A|"G"BAB"D"A2 F|D2 F FGF|"A"E3 E2 E|"D"D2 F A2 A|
"G"BAB"A"A2 A|"G"B2 c"A" e2 c|[1"D"d3 d2 F:|[2"D" d3 d3|]
